src/images/instagram.svg

<svg width="49" height="48" viewBox="0 0 49 48" fill="none" xmlns="http://www.w3.org/2000/svg">
<path fill-rule="evenodd" clip-rule="evenodd" d="M24.5 14C21.7842 14 21.4436 14.0115 20.377 14.0601C19.3126 14.1087 18.5857 14.2777 17.9496 14.525C17.292 14.7805 16.7344 15.1224 16.1784 15.6784C15.6225 16.2343 15.2805 16.792 15.025 17.4496C14.7778 18.0857 14.6087 18.8126 14.5602 19.877C14.5115 20.9436 14.5 21.2841 14.5 24C14.5 26.7158 14.5115 27.0563 14.5602 28.1229C14.6087 29.1874 14.7778 29.9143 15.025 30.5504C15.2805 31.2079 15.6225 31.7656 16.1784 32.3216C16.7344 32.8775 17.292 33.2194 17.9496 33.475C18.5857 33.7222 19.3126 33.8913 20.377 33.9398C21.4436 33.9885 21.7842 34 24.5 34C27.2158 34 27.5564 33.9885 28.623 33.9398C29.6874 33.8913 30.4143 33.7222 31.0504 33.475C31.708 33.2194 32.2656 32.8775 32.8216 32.3216C33.3775 31.7656 33.7194 31.208 33.975 30.5504C34.2222 29.9143 34.3913 29.1874 34.4399 28.1229C34.4885 27.0563 34.5 26.7158 34.5 24C34.5 21.2842 34.4885 20.9436 34.4399 19.877C34.3913 18.8126 34.2222 18.0857 33.975 17.4496C33.7194 16.792 33.3775 16.2343 32.8216 15.6784C32.2656 15.1224 31.708 14.7805 31.0504 14.525C30.4143 14.2777 29.6874 14.1087 28.623 14.0601C27.5564 14.0115 27.2158 14 24.5 14ZM19.3647 24C19.3647 21.164 21.6638 18.8649 24.4999 18.8649C27.336 18.8649 29.635 21.164 29.635 24C29.635 26.8361 27.336 29.1351 24.4999 29.1351C21.6638 29.1351 19.3647 26.8361 19.3647 24ZM21.1667 24C21.1667 25.8409 22.659 27.3333 24.5 27.3333C26.3409 27.3333 27.8333 25.8409 27.8333 24C27.8333 22.159 26.3409 20.6666 24.5 20.6666C22.659 20.6666 21.1667 22.159 21.1667 24ZM28.5408 15.8601C27.4864 15.812 27.1701 15.8018 24.5 15.8018C21.8299 15.8018 21.5136 15.812 20.4591 15.8601C19.4841 15.9046 18.9546 16.0675 18.6023 16.2044C18.1355 16.3858 17.8024 16.6025 17.4524 16.9525C17.1025 17.3023 16.8858 17.6355 16.7044 18.1022C16.5675 18.4546 16.4046 18.9841 16.3601 19.9591C16.312 21.0136 16.3018 21.3298 16.3018 24C16.3018 26.6701 16.312 26.9864 16.3601 28.0409C16.4046 29.0158 16.5675 29.5453 16.7044 29.8977C16.8858 30.3644 17.1025 30.6976 17.4525 31.0475C17.8024 31.3974 18.1355 31.6141 18.6023 31.7956C18.9546 31.9325 19.4841 32.0954 20.4591 32.1399C21.5135 32.188 21.8297 32.1982 24.5 32.1982C27.1703 32.1982 27.4865 32.188 28.5408 32.1399C29.5158 32.0954 30.0453 31.9325 30.3977 31.7956C30.8644 31.6141 31.1976 31.3974 31.5475 31.0475C31.8975 30.6976 32.1142 30.3644 32.2956 29.8977C32.4325 29.5453 32.5954 29.0158 32.6399 28.0408C32.688 26.9864 32.6982 26.6701 32.6982 24C32.6982 21.3298 32.688 21.0136 32.6399 19.9591C32.5954 18.9841 32.4325 18.4546 32.2956 18.1022C32.1142 17.6355 31.8975 17.3023 31.5475 16.9524C31.1976 16.6025 30.8644 16.3858 30.3977 16.2044C30.0453 16.0675 29.5158 15.9046 28.5408 15.8601Z" fill="white"/>
</svg>

<svg width="49" height="48" fill="none" xmlns="http://www.w3.org/2000/svg"><path fill-rule="evenodd" clip-rule="evenodd" d="M24.5 14c-2.716 0-3.056.011-4.123.06-1.064.049-1.791.218-2.427.465a4.9 4.9 0 00-1.772 1.153 4.901 4.901 0 00-1.153 1.772c-.247.636-.416 1.363-.465 2.427-.049 1.067-.06 1.407-.06 4.123s.011 3.056.06 4.123c.049 1.064.218 1.791.465 2.427a4.903 4.903 0 001.153 1.772 4.903 4.903 0 001.772 1.153c.636.247 1.363.416 2.427.465 1.067.049 1.407.06 4.123.06s3.056-.011 4.123-.06c1.064-.049 1.791-.218 2.427-.465a4.903 4.903 0 001.772-1.153 4.903 4.903 0 001.153-1.772c.247-.636.416-1.363.465-2.427.049-1.067.06-1.407.06-4.123s-.011-3.056-.06-4.123c-.049-1.064-.218-1.791-.465-2.427a4.902 4.902 0 00-1.153-1.772 4.9 4.9 0 00-1.772-1.153c-.636-.247-1.363-.416-2.427-.465-1.067-.049-1.407-.06-4.123-.06zm-5.135 10a5.135 5.135 0 1110.27 0 5.135 5.135 0 01-10.27 0zm1.802 0a3.333 3.333 0 106.666 0 3.333 3.333 0 00-6.666 0zm7.374-8.14c-1.055-.048-1.37-.058-4.041-.058-2.67 0-2.986.01-4.04.058-.976.045-1.505.207-1.858.344-.466.182-.8.398-1.15.748-.35.35-.566.683-.748 1.15-.137.353-.3.882-.344 1.857-.048 1.055-.058 1.37-.058 4.041 0 2.67.01 2.986.058 4.04.045.976.207 1.505.344 1.858.182.466.398.8.748 1.15a3.1 3.1 0 001.15.748c.353.137.882.3 1.857.344 1.055.048 1.37.058 4.041.058 2.67 0 2.986-.01 4.04-.058.976-.045 1.505-.207 1.858-.344a3.1 3.1 0 001.15-.748c.35-.35.566-.684.748-1.15.136-.353.3-.882.344-1.857.048-1.055.058-1.37.058-4.041 0-2.67-.01-2.986-.058-4.04-.045-.976-.208-1.505-.344-1.858a3.098 3.098 0 00-.748-1.15 3.099 3.099 0 00-1.15-.748c-.353-.137-.882-.3-1.857-.344z" fill="#fff"/></svg>
